X: 882
M: C
L: 1/8
K: Amix
V: 1
e |\
|: e |\
a>bae a>bae | g>agd BGGB |
a>bae abae | dBed cAAe |\
a>bae a>bae | g>agd BGGg |\
afge fdec | dBed TcAA :|
V: 2 clef=bass middle=d
z |\
a2a2 a2a2 | g2g2 g2g2 |\
a2a2 a2a2 | e2e2 A2A :|\
|: z |\
a2a2 a2a2 |
g2g2 g2g2 |\
a2a2 a2a2 | e2e2 A2A2 |\
a2a2 a2a2 | g2g2 g2g2 |\
a2a2 a2a2 | e2e2 A2A :|

